src/apps/scalable/libreoffice.svg

<svg width="64" height="64" version="1.1" xmlns="http://www.w3.org/2000/svg" xmlns:xlink="http://www.w3.org/1999/xlink">
 <defs>
  <filter id="filter8" x="-.012" y="-.012" width="1.024" height="1.024" color-interpolation-filters="sRGB">
   <feGaussianBlur stdDeviation="0.074081873"/>
  </filter>
  <linearGradient id="linearGradient7" x1="2.5981" x2="10.583" y1="2.8356" y2="11.312" gradientUnits="userSpaceOnUse" xlink:href="#linearGradient6"/>
  <linearGradient id="linearGradient6">
   <stop stop-color="#ffffff" offset="0"/>
   <stop stop-color="#ffffff" stop-opacity="0" offset="1"/>
  </linearGradient>
  <linearGradient id="linearGradient8" x1="15.081" x2="12.7" y1="14.816" y2="12.171" gradientUnits="userSpaceOnUse" xlink:href="#linearGradient6"/>
  <linearGradient id="linearGradient3" x1="8.4665" x2="8.4665" y1="1.0583" y2="15.875" gradientTransform="scale(3.7796)" gradientUnits="userSpaceOnUse">
   <stop stop-color="#323131" offset="0"/>
   <stop stop-color="#141414" offset="1"/>
  </linearGradient>
 </defs>
 <path d="m20.26 4.0003c-5.782 0-9.7427 1.7243-12.321 4.5348-2.5651 2.7962-3.9387 6.8037-3.9387 11.341v24.248c0 4.5378 1.3734 8.5453 3.9387 11.341 2.5784 2.8103 6.5391 4.5348 12.321 4.5348h23.549c5.782 0 9.7427-1.7243 12.321-4.5348 2.5651-2.7962 3.8703-6.4352 3.8703-11.341v-23.337c0-5.9351-1.305-9.4562-3.8703-12.252-2.5784-2.8103-6.5391-4.5348-12.321-4.5348h-18.315z" fill="url(#linearGradient3)" stroke-width="3.7796"/>
 <g transform="scale(3.7796)" filter="url(#filter8)" opacity=".25">
  <path d="m5.3603 1.0583c-1.5298 0-2.5775 0.45637-3.2597 1.1999-0.67868 0.73981-1.0423 1.8002-1.0423 3.0008v6.415c0 1.2006 0.36361 2.2609 1.0423 3.0008 0.68219 0.74355 1.7299 1.1999 3.2597 1.1999h6.2305c1.5298 0 2.5775-0.45637 3.2597-1.1999 0.67868-0.73981 1.0242-1.7027 1.0242-3.0008v-6.1742c0-1.5703-0.34552-2.5018-1.0242-3.2416-0.68219-0.74355-1.7299-1.1999-3.2597-1.1999h-4.8456zm-0.00103 0.26406h6.2326c1.4772 0 2.437 0.43133 3.0644 1.1152 0.63411 0.69126 0.95341 1.5307 0.95341 3.0623v6.1742c0 1.2512-0.32181 2.1335-0.95341 2.822-0.6274 0.68381-1.5871 1.1136-3.0644 1.1136h-6.2326c-1.4772 0-2.437-0.42978-3.0644-1.1136-0.62537-0.68172-0.97253-1.6747-0.97253-2.822v-6.4145c0-1.1472 0.34717-2.1403 0.97253-2.822 0.6274-0.68381 1.5871-1.1152 3.0644-1.1152z" fill="url(#linearGradient7)"/>
  <path d="m5.3603 1.0583c-1.5298 0-2.5775 0.45637-3.2597 1.1999-0.67868 0.73981-1.0423 1.8002-1.0423 3.0008v6.415c0 1.2006 0.36361 2.2609 1.0423 3.0008 0.68219 0.74355 1.7299 1.1999 3.2597 1.1999h6.2305c1.5298 0 2.5775-0.45637 3.2597-1.1999 0.67868-0.73981 1.0242-1.7027 1.0242-3.0008v-6.1742c0-1.5703-0.34552-2.5018-1.0242-3.2416-0.68219-0.74355-1.7299-1.1999-3.2597-1.1999h-4.8456zm-0.00103 0.26406h6.2326c1.4772 0 2.437 0.43133 3.0644 1.1152 0.63411 0.69126 0.95341 1.5307 0.95341 3.0623v6.1742c0 1.2512-0.32181 2.1335-0.95341 2.822-0.6274 0.68381-1.5871 1.1136-3.0644 1.1136h-6.2326c-1.4772 0-2.437-0.42978-3.0644-1.1136-0.62537-0.68172-0.97253-1.6747-0.97253-2.822v-6.4145c0-1.1472 0.34717-2.1403 0.97253-2.822 0.6274-0.68381 1.5871-1.1152 3.0644-1.1152z" fill="url(#linearGradient8)" stroke-width="1.0001"/>
 </g>
 <path d="m20 11c-4.986 0-9 4.014-9 9v24c0 4.986 4.014 9 9 9h24c4.986 0 9-4.014 9-9v-16l-2-2v18c0 3.878-3.122 7-7 7h-24c-3.878 0-7-3.122-7-7v-24c0-3.878 3.122-7 7-7h18l-2-2h-16z" fill="#ffffff" stroke-linecap="round" stroke-linejoin="round" stroke-width="1.8667"/>
 <path d="m53 28v-12c0-2.77-2.23-5-5-5h-12v1l16 16z" fill="#ffffff" stroke-linecap="round" stroke-linejoin="round" stroke-width="2"/>
</svg>

<svg xmlns="http://www.w3.org/2000/svg" xmlns:xlink="http://www.w3.org/1999/xlink" width="64" height="64"><defs><linearGradient xlink:href="#a" id="d" x1="2.598" x2="10.583" y1="2.836" y2="11.312" gradientUnits="userSpaceOnUse"/><linearGradient id="a"><stop offset="0" stop-color="#fff"/><stop offset="1" stop-color="#fff" stop-opacity="0"/></linearGradient><linearGradient xlink:href="#a" id="e" x1="15.081" x2="12.7" y1="14.816" y2="12.171" gradientUnits="userSpaceOnUse"/><linearGradient id="b" x1="8.466" x2="8.466" y1="1.058" y2="15.875" gradientTransform="scale(3.7796)" gradientUnits="userSpaceOnUse"><stop offset="0" stop-color="#323131"/><stop offset="1" stop-color="#141414"/></linearGradient><filter id="c" width="1.024" height="1.024" x="-.012" y="-.012" color-interpolation-filters="sRGB"><feGaussianBlur stdDeviation=".074"/></filter></defs><path fill="url(#b)" d="M20.26 4c-5.782 0-9.743 1.725-12.321 4.535C5.374 11.331 4 15.34 4 19.876v24.248c0 4.538 1.374 8.545 3.939 11.341C10.517 58.275 14.479 60 20.26 60h23.549c5.782 0 9.743-1.724 12.321-4.535C58.695 52.67 60 49.03 60 44.125V20.786c0-5.935-1.305-9.456-3.87-12.252C53.552 5.725 49.59 4 43.809 4H25.494z"/><g filter="url(#c)" opacity=".25" transform="scale(3.7796)"><path fill="url(#d)" d="M5.36 1.058c-1.53 0-2.577.457-3.26 1.2-.678.74-1.042 1.8-1.042 3.001v6.415c0 1.2.364 2.26 1.043 3 .682.744 1.73 1.2 3.26 1.2h6.23c1.53 0 2.577-.456 3.26-1.2.678-.739 1.024-1.702 1.024-3V5.5c0-1.57-.346-2.502-1.024-3.242-.683-.743-1.73-1.2-3.26-1.2H6.745zm0 .264h6.232c1.477 0 2.437.432 3.064 1.116.634.69.954 1.53.954 3.062v6.174c0 1.251-.322 2.134-.954 2.822-.627.684-1.587 1.114-3.064 1.114H5.359c-1.477 0-2.437-.43-3.064-1.114-.625-.682-.973-1.675-.973-2.822V5.26c0-1.148.348-2.14.973-2.822.627-.684 1.587-1.116 3.064-1.116"/><path fill="url(#e)" d="M5.36 1.058c-1.53 0-2.577.457-3.26 1.2-.678.74-1.042 1.8-1.042 3.001v6.415c0 1.2.364 2.26 1.043 3 .682.744 1.73 1.2 3.26 1.2h6.23c1.53 0 2.577-.456 3.26-1.2.678-.739 1.024-1.702 1.024-3V5.5c0-1.57-.346-2.502-1.024-3.242-.683-.743-1.73-1.2-3.26-1.2H6.745zm0 .264h6.232c1.477 0 2.437.432 3.064 1.116.634.69.954 1.53.954 3.062v6.174c0 1.251-.322 2.134-.954 2.822-.627.684-1.587 1.114-3.064 1.114H5.359c-1.477 0-2.437-.43-3.064-1.114-.625-.682-.973-1.675-.973-2.822V5.26c0-1.148.348-2.14.973-2.822.627-.684 1.587-1.116 3.064-1.116"/></g><path fill="#fff" d="M20 11a8.98 8.98 0 0 0-9 9v24c0 4.986 4.014 9 9 9h24c4.986 0 9-4.014 9-9V28l-2-2v18c0 3.878-3.122 7-7 7H20c-3.878 0-7-3.122-7-7V20c0-3.878 3.122-7 7-7h18l-2-2z"/><path fill="#fff" d="M53 28V16c0-2.77-2.23-5-5-5H36v1l16 16z"/></svg>
